!! Example 6: "Oh Ye Young, Ye Gay, Ye Proud"
!! from William H. Tallmadge, "Folk Organum: A Study of Origins" in
!! "American Music" Vol. 2, No. 3 (1984) p.55-57
!! NOTE: Due to notational problems, several liberties have been taken
!!       in encoding this score.
!! Irregular meter
!! Men Precentor	Women  Women
**kern	**kern	**kern	**kern
=1	=1	=1	=1
2r	2A	2r	2r
4r	4A	4r	4r
=2	=2	=2	=2
16r	16D	16r	16r
4r	4r	4r	4r
8r	8A	8r	8r
16r	16d	16r	16r
=3	=3	=3	=3
2d	2d	2dd	2dd
{8.d	{8.d	{8.dd	{8.dd
16A}	16A}	16a}	16a}
=4	=4	=4	=4
[4A	4A	[4a	[4a
8A]	8r	8a]	8a]
4r	8.d	4r	4r
.	16d	.	.
32r	{32d	32r	32r
8r	16A}	8r	8r
.	16F#	.	.
4r	8.A	4r	4r
.	16B	.	.
16r	16F#	16r	16r
4r	8E	4r	4r
.	8r	.	.
=5	=5	=5	=5
4G	4G	4g	4g
4A	4A	4a	4a
4B	4B	4d	4b
=6	=6	=6	=6
2A	2A	4f#	2a
.	.	4d	.
8.A	4A	4f#	4a
16B	.	.	.
=7	=7	=7	=7
4D	4F#	2d	2f#
4F#	4D	.	.
4E	4E	4e	4e
=8	=8	=8	=8
2D	4D	2A	2d
.	8.A	.	.
.	16A	.	.
4r	8..B	4r	4r
.	32A	.	.
8r	16A	8r	8r
.	16A	.	.
16r	32A	16r	16r
.	32F#	.	.
4r	8D	4r	4r
.	8r	.	.
=9	=9	=9	=9
4.A	8G	2f#	2a
.	4.A	.	.
32B	.	.	.
32d	.	.	.
16B	.	.	.
8A	4A	4f#	4a
64B	.	.	.
64d	.	.	.
32B	.	.	.
16A	.	.	.
=10	=10	=10	=10
2D	16F#	16f#	16f#
.	4..D	[16d	[16d
.	.	4.d]	4.d]
4d	4d	4b	4b
=11	=11	=11	=11
{4.d	{4.d	4.b	4.b
8A}	8A}	8a	8a
4d	4d	8b	8b
.	.	8a	8a
=12	=12	=12	=12
2A	4.A	2f#	2a
.	8.d	.	.
8r	.	8r	8r
.	16d	.	.
4r	{16d	4r	4r
.	8A}	.	.
.	16F#	.	.
8r	16A	8r	8r
.	16B	.	.
16r	{16F#	16r	16r
4r	4D}	4r	4r
=13	=13	=13	=13
16r	{16D	16r	16r
4G	4G}	4g	4g
4A	4A	4a	4a
16B	16B	8b	8b
[8.d	8.d	.	.
.	.	8.a	8.a
16d]	16A	.	.
=14	=14	=14	=14
2A	2A	2f#	2a
4A	8.A	4f#	4a
.	16B	.	.
=15	=15	=15	=15
4F#	4F#	16f#	16f#
.	.	16d	16d
.	.	8f#	8f#
8E	8E	8e	8e
4.D	4.D	4.A	4.d
8r	8A	8r	8r
16r	16A	16r	16r
8r	8A	8r	8r
32r	32A	32r	32r
8r	8.B	8r	8r
16r	.	16r	16r
32r	32A	32r	32r
4r	8D	4r	4r
.	8r	.	.
=16	=16	=16	=16
2A	2A	2f#	2a
16d	4A	4f#	4a
8.A	.	.	.
=17	=17	=17	=17
2D	2D	1d	2f#
8A	8A	.	8a
4d	4.d	.	4b
8A	.	.	8a
=18	=18	=18	=18
2d	4.d	2b	2b
.	8A	.	.
4d	4d	8b	8b
.	.	8a	8a
=19	=19	=19	=19
2A	4.A	2d	2f#
.	8.d	.	.
8r	.	8r	8r
.	16d	.	.
2r	16d	2r	2r
.	8A	.	.
.	32F#	.	.
.	16A	.	.
.	32B	.	.
.	16F#	.	.
.	[8D	.	.
=20	=20	=20	=20
4G	16D]	4g	4g
.	16r	.	.
.	8r	.	.
4A	4A	4a	4a
8B	8B	8b	8b
8d	8d	8a	8a
=21	=21	=21	=21
2A	2A	2f#	2a
4.A	2A	2f#	2a
8B	.	.	.
=22	=22	=22	=22
4D	4D	4d	4d
4F#	4F#	4f#	4f#
4E	4E	4e	4e
=23	=23	=23	=23
2D	2D	2d	2d
==	==	==	==
*-	*-	*-	*-
